packages/foundations/assets/icons/functional/images/transportation/electric_car_14_inverted.svg

<svg width="14" height="14" viewBox="0 0 14 14" fill="none" xmlns="http://www.w3.org/2000/svg">
<g clip-path="url(#clip0_2214_6734)">
<path fill-rule="evenodd" clip-rule="evenodd" d="M4.54807 9.96949L4.54335 10.8492H2.79806V9.32895C2.54901 9.04444 2.40321 8.71905 2.36065 8.35276L2.17087 6.65079H1.39807V5.25079H2.58527L3.11809 2.84865C3.28469 2.28511 3.77807 1.75079 4.40424 1.75079L7.45294 1.75149C7.78155 1.75149 8.04794 2.01788 8.04794 2.34649C8.04794 2.6751 7.78155 2.94149 7.45294 2.94149L4.22835 2.94079L3.77807 5.25079C5.45735 5.25033 6.53068 5.25009 6.99807 5.25009C7.00006 4.47606 7.62673 3.85494 8.39766 3.85229C8.39807 3.46419 8.71147 3.15079 9.09807 3.15079H10.5065C10.8655 3.15079 11.1981 3.48219 11.2061 3.85219C11.9441 3.85229 12.602 4.51423 12.602 5.25228L12.5981 10.8492C12.5981 11.6224 11.9713 12.2492 11.1981 12.2492H8.39861C7.62541 12.2492 6.99861 11.6224 6.99861 10.8492L6.99807 10.1508C6.1814 10.1508 5.36474 10.0904 4.54807 9.96949ZM11.1981 5.05747C11.0164 5.05747 10.0832 5.05747 8.39861 5.05747C8.2992 5.05747 8.18861 5.13162 8.18861 5.26749C8.18861 5.41519 8.18861 7.27576 8.18861 10.8492C8.18861 10.9486 8.28057 11.0509 8.39861 11.0592C8.63089 11.0592 9.56404 11.0592 11.1981 11.0592C11.2975 11.0592 11.4081 10.9854 11.4081 10.8492C11.4081 10.6107 11.4081 8.75012 11.4081 5.26749C11.4081 5.16808 11.3044 5.05747 11.1981 5.05747ZM5.76598 7.39187C5.53698 7.4857 5.3801 7.72603 5.42612 7.93892C5.49065 8.19718 5.5615 8.479 5.63867 8.78438C5.69908 8.92908 5.87654 9.10079 6.04408 9.10092C6.30324 9.10083 6.62123 9.10079 6.99807 9.10079V8.05639L6.53257 8.05686L6.43281 7.68006C6.36271 7.46819 6.02362 7.28631 5.76598 7.39187ZM10.2365 5.99895C10.4789 6.10787 10.6272 6.39095 10.5002 6.69299C10.3736 6.97346 10.245 7.25083 10.1145 7.52509L10.3257 7.52579C10.6828 7.52579 10.9715 7.89477 10.8046 8.26605C10.6041 8.72158 10.3521 9.25119 10.0488 9.85488C9.92995 10.1193 9.61919 10.2373 9.35473 10.1185C9.11232 10.0095 8.95483 9.71056 9.09115 9.42436C9.17178 9.22857 9.31269 8.94548 9.51387 8.57509L9.30368 8.57579C8.94665 8.57579 8.66513 8.20049 8.82479 7.83564C8.97607 7.49216 9.21529 6.96784 9.54245 6.26268C9.66127 5.99819 9.97201 5.88012 10.2365 5.99895ZM3.44081 6.89803L4.53224 7.15492C4.7741 7.24644 4.91714 7.5049 4.85735 7.76387C4.79212 8.04639 4.51022 8.22254 4.2277 8.15732L3.13628 7.90042C2.89442 7.80891 2.75138 7.55045 2.81117 7.29147C2.8764 7.00896 3.1583 6.8328 3.44081 6.89803Z" fill="#1A1C1F"/>
</g>
<defs>
<clipPath id="clip0_2214_6734">
<rect width="14" height="14" fill="white"/>
</clipPath>
</defs>
</svg>

<svg xmlns="http://www.w3.org/2000/svg" width="14" height="14" fill="none"><g clip-path="url(#a)"><path fill="#1A1C1F" fill-rule="evenodd" d="m4.548 9.97-.005.88H2.798V9.328a1.76 1.76 0 0 1-.437-.976L2.17 6.65h-.773v-1.4h1.187l.533-2.402c.167-.564.66-1.098 1.286-1.098h3.049a.595.595 0 1 1 0 1.19H4.228l-.45 2.31h3.22a1.4 1.4 0 0 1 1.4-1.399.7.7 0 0 1 .7-.701h1.409c.359 0 .691.331.7.701.737 0 1.395.662 1.395 1.4l-.004 5.597a1.4 1.4 0 0 1-1.4 1.4h-2.8a1.4 1.4 0 0 1-1.4-1.4v-.698q-1.225 0-2.45-.182m6.65-4.913h-2.8c-.099 0-.21.075-.21.21v5.582c0 .1.093.202.21.21h2.8c.1 0 .21-.074.21-.21V5.267c0-.099-.104-.21-.21-.21M5.766 7.392c-.229.094-.386.334-.34.547q.097.387.213.845c.06.145.238.317.405.317h.954V8.056h-.465l-.1-.376c-.07-.212-.41-.394-.667-.288m4.47-1.393a.52.52 0 0 1 .264.694q-.19.42-.386.832h.212c.357 0 .646.37.479.741q-.3.683-.756 1.589a.525.525 0 0 1-.694.263.52.52 0 0 1-.264-.694q.12-.293.423-.849h-.21a.528.528 0 0 1-.48-.74q.228-.514.718-1.572a.525.525 0 0 1 .694-.264m-6.795.899 1.091.257a.525.525 0 0 1-.304 1.002L3.136 7.9a.525.525 0 0 1 .305-1.002" clip-rule="evenodd"/></g><defs><clipPath id="a"><path fill="#fff" d="M0 0h14v14H0z"/></clipPath></defs></svg>
